svgs/solid/circle-b.svg

<svg xmlns="http://www.w3.org/2000/svg" viewBox="0 0 512 512"><!-- Font Awesome Pro 6.0.0-alpha2 by @fontawesome - https://fontawesome.com License - https://fontawesome.com/license (Commercial License) --><path d="M304 204C304 188.562 291.438 176 276 176H208V232H276C291.438 232 304 219.438 304 204ZM256 16C123.451 16 16 123.451 16 256S123.451 496 256 496S496 388.549 496 256S388.549 16 256 16ZM292 384H184C170.75 384 160 373.25 160 360V152C160 138.75 170.75 128 184 128H276C317.906 128 352 162.094 352 204C352 220.346 346.699 235.41 337.883 247.82C356.062 261.719 368 283.4 368 308C368 349.906 333.906 384 292 384ZM292 280H208V336H292C307.438 336 320 323.438 320 308S307.438 280 292 280Z"/></svg>

<svg xmlns="http://www.w3.org/2000/svg" viewBox="0 0 512 512"><!--! Font Awesome Pro 6.3.0 by @fontawesome - https://fontawesome.com License - https://fontawesome.com/license (Commercial License) Copyright 2023 Fonticons, Inc. --><path d="M256 512A256 256 0 1 0 256 0a256 256 0 1 0 0 512zM160 152c0-13.3 10.7-24 24-24h92c42 0 76 34 76 76c0 16.2-5.1 31.3-13.8 43.7C356.3 261.6 368 283.4 368 308c0 42-34 76-76 76H184c-13.3 0-24-10.7-24-24V256 152zm144 52c0-15.5-12.5-28-28-28H208v56h68c15.5 0 28-12.5 28-28zM208 336h84c15.5 0 28-12.5 28-28s-12.5-28-28-28H276 208v56z"/></svg>
